lib/radiotmp/nrk-media-playlist-add-later-expressive.svg

<svg width="24" height="24" viewBox="0 0 24 24" fill="none" xmlns="http://www.w3.org/2000/svg">
<g opacity="0.3">
<path d="M13 18C13 18.5523 13.4477 19 14 19H21C21.5523 19 22 18.5523 22 18C22 17.4477 21.5523 17 21 17H14C13.4477 17 13 17.4477 13 18Z" fill="black"/>
<path d="M10 12C10 12.5523 10.4477 13 11 13L21 13C21.5523 13 22 12.5523 22 12C22 11.4477 21.5523 11 21 11L11 11C10.4477 11 10 11.4477 10 12Z" fill="black"/>
<path d="M22 6C22 6.55229 21.5523 7 21 7L9 7C8.44772 7 8 6.55229 8 6C8 5.44771 8.44772 5 9 5L21 5C21.5523 5 22 5.44771 22 6Z" fill="black"/>
</g>
<path d="M2 6C2 5.44772 2.44772 5 3 5C3.55228 5 4 5.44772 4 6V16C4 16.5523 4.44772 17 5 17H7.21606L6.93215 16.4773C6.57019 15.811 7.05257 15 7.81087 15H7.9052C8.27176 15 8.60895 15.2006 8.78392 15.5227L10.1296 18L8.78392 20.4773C8.60895 20.7994 8.27176 21 7.9052 21H7.81087C7.05257 21 6.57019 20.189 6.93215 19.5227L7.21606 19H4.60803C3.16766 19 2 17.8323 2 16.392V6Z" fill="black"/>
</svg>

<svg xmlns="http://www.w3.org/2000/svg" viewBox="0 0 24 24"><g fill="#000" opacity=".3"><path d="M13 18a1 1 0 0 0 1 1h7a1 1 0 1 0 0-2h-7a1 1 0 0 0-1 1ZM10 12a1 1 0 0 0 1 1h10a1 1 0 1 0 0-2H11a1 1 0 0 0-1 1ZM22 6a1 1 0 0 1-1 1H9a1 1 0 1 1 0-2h12a1 1 0 0 1 1 1Z"/></g><path fill="#000" d="M2 6a1 1 0 0 1 2 0v10a1 1 0 0 0 1 1h2.216l-.284-.523A1 1 0 0 1 7.811 15h.094a1 1 0 0 1 .879.523L10.13 18l-1.346 2.477a1 1 0 0 1-.879.523h-.094a1 1 0 0 1-.879-1.477L7.216 19H4.608A2.608 2.608 0 0 1 2 16.392V6Z"/></svg>
